X:66
T:Kom Lunkom
R:sl-polska
A:Sm{\aa}land
B:Sm{\aa}l\"andsk musiktradition 61 i Em
Z:id:hn-sp-66
M:3/4
L:1/16
K:Gdor
d4 G4 G2B2 | A2G2 =F4 D4 | G3^F G2A2 B2c2 | c2d2 d8 :|
w:Kom Lunk-om, och h\"ang dig p{\aa} mig, jag ska k\"o-ra dig till M\"on-ster-{\aa}s :|
|: B3c d2((3ded) c2B2 | A3B c2((3cdc) B2A2 :|
w:Har du me-ra** peng-ar f{\aa}r du {\aa}k-a** l\"ang-re :|
G3^F G2A2 B2c2 | d2^F2 G4 G4 ||
w:an-nars f{\aa}r du stiga av och g{\aa}, sa'n.

